symbols/web/3mp/materialsymbolsoutlined/3mp_wght500fill1_40px.svg

<svg xmlns="http://www.w3.org/2000/svg" height="40" width="40"><path d="M15.917 19h5.541q.625 0 1.146-.521.521-.521.521-1.146v-6.666q0-.625-.521-1.146Q22.083 9 21.458 9h-5.541v2.208h5v2.042h-3.125v1.5h3.125v2h-5ZM9.792 31h2.25v-7.667h2V28.5h2.25v-5.167H18.5V31h2.208v-8.208q0-.625-.52-1.146-.521-.521-1.146-.521h-7.584q-.625 0-1.146.521-.52.521-.52 1.146Zm13.166 0h2.209v-2.542H28.5q.625 0 1.146-.5.521-.5.521-1.166v-4q0-.625-.521-1.146-.521-.521-1.146-.521h-5.542Zm2.209-4.75v-2.917h2.791v2.917ZM7.875 35.292q-1.292 0-2.229-.938-.938-.937-.938-2.229V7.875q0-1.292.938-2.229.937-.938 2.229-.938h24.25q1.292 0 2.229.938.938.937.938 2.229v24.25q0 1.292-.938 2.229-.937.938-2.229.938Z"/></svg>

<svg xmlns="http://www.w3.org/2000/svg" height="40" width="40"><path d="M15.917 19H21.458Q22.083 19 22.604 18.479Q23.125 17.958 23.125 17.333V10.667Q23.125 10.042 22.604 9.521Q22.083 9 21.458 9H15.917V11.208H20.917V13.25H17.792V14.75H20.917V16.75H15.917ZM7.875 35.292Q6.583 35.292 5.646 34.354Q4.708 33.417 4.708 32.125V7.875Q4.708 6.583 5.646 5.646Q6.583 4.708 7.875 4.708H32.125Q33.417 4.708 34.354 5.646Q35.292 6.583 35.292 7.875V32.125Q35.292 33.417 34.354 34.354Q33.417 35.292 32.125 35.292ZM11.458 21.125Q10.833 21.125 10.312 21.646Q9.792 22.167 9.792 22.792V31H12.042V23.333H14.042V28.5H16.292V23.333H18.5V31H20.708V22.792Q20.708 22.167 20.188 21.646Q19.667 21.125 19.042 21.125ZM22.958 21.125V31H25.167V28.458H28.5Q29.125 28.458 29.646 27.958Q30.167 27.458 30.167 26.792V22.792Q30.167 22.167 29.646 21.646Q29.125 21.125 28.5 21.125ZM25.167 23.333H27.958V26.25H25.167Z"/></svg>
